X:1
T:Title
%%score 1 2 3 4
L:1/8
Q:1/4=208
M:4/4
K:Eb
V:1 treble nm="Church Organ, Staff"
V:2 treble nm="Church Organ, Staff-1"
V:3 bass nm="Grand Piano, Staff-2"
V:4 bass nm="Grand Piano, Staff-3"
V:1
 E2 F2 G4 | B4 E4 | E4 F4 | G4 B2 B2 | c4 d4 | e4 G4 | G4 B4 | F4 F4 | G6 G2 | =A4 A4 | B4 B4 | %11
w: By~C.~W.~Pearce * *|||||||||||
 c4 c2 c2 | d4 d4 | e4 c4 | c4 d2 c2 | B4 B4 | c6 A2 | F4 F4 | B6 G2 | E4 E2 E2 | A4 B4 | G4 G4 | %22
w: |||||||||||
 G4 _G4 | G4 d4 | e6 c2 | A4 A4 | d6 B2 | G4 G2 G2 | c4 A2 G2 | F4 E4 | E4 D4 | E4 z4 |] %32
w: ||||||||||
V:2
 E2 E2 E4 | B,4 C4 | E4 D4 | E4 E2 E2 | E4 F4 | E4 G4 | E4 E4 | D4 F4 | E6 E2 | F4 F4 | F4 D4 | %11
w: Christ ians,~ sing~|out~ with~|ex ul|ta tion,~ And~|praise~ your~|Be ne|fac tor�s~|Name!~ To|day~ the~|Au thor~|of~ sal|
 G4 F2 F2 | F4 G4 | G4 G4 | F4 E4 | D4 E4 | E6 E2 | E4 D4 | E6 E2 | E4 E2 E2 | E4 D4 | D4 C4 | %22
w: va tion,~ The~|Fa ther�s~|well~ be|lov �d~|came.~ Of~|un de|fil �d~|Vir gin~|Mo ther~ An~|In fant,~|all~ Di|
 D4 D4 | D4 G4 | G6 G2 | G4 F4 | F6 F2 | F4 E2 E2 | E4 E4 | D4 E4 | C4 B,4 | B,4 z4 |] %32
w: vine,~ was~|born,~ And~|God~ Him|self~ be|came~ your~|Bro ther~ U|pon~ this~|hap py~|Christ mas~|morn.~|
V:3
 G,2 A,2 B,4 | F,4 G,4 | G,4 B,4 | B,4 B,2 B,2 | A,4 A,4 | B,4 B,4 | C4 B,4 | B,4 B,4 | B,6 B,2 | %9
 C4 C4 | B,4 B,4 | B,4 =A,2 A,2 | B,4 =B,4 | C4 C2 B,2 | =A,2 G,2 A,4 | B,4 B,4 | A,6 C2 | %17
 B,4 B,4 | B,6 B,2 | C4 B,2 B,2 | C4 B,4 | B,4 =A,4 | =A,4 A,4 | =B,4 B,4 | C6 C2 | C4 C4 | %26
 B,6[K:bass] B,2 | B,4 B,2 B,2 | F,4 C2 B,2 | A,4 G,4 | F,4 F,4 | G,4 z4 |] %32
V:4
 E,2 E,2 E,4 | D,4 C,4 | B,,4 B,,4 | E,4 G,2 G,2 | A,4 F,4 | G,4 E,4 | C,4 G,,2 A,,2 | B,,4 D,4 | %8
 E,6 E,2 | E,4 E,4 | D,4 G,4 | E,4 F,2 F,2 | B,4 G,4 | C4 E,4 | F,4 F,4 | B,,4 G,4 | A,6 F,2 | %17
 B,4 A,4 | G,6 E,2 | A,4 G,2 G,2 | F,4 B,,4 | E,4 =A,,4 | D,4 D,4 | G,,4 G,4 | C,4 D,2 E,2 | %25
 F,4 F,4 | B,,4 C,2 D,2 | E,4 E,2 E,2 | A,,4 A,,4 | B,,4 C,4 | A,,4 B,,4 | E,4 z4 |] %32

